Papirus/64x64/apps/pac.svg

<svg xmlns="http://www.w3.org/2000/svg" width="64" height="64" version="1">
 <path style="opacity:0.2" d="M 20,57 16,53 H 8 C 5.784,53 4,51.216 4,49 V 13 C 4,10.784 5.784,9 8,9 H 56 C 58.216,9 60,10.784 60,13 V 49 C 60,51.216 58.216,53 56,53 H 48 L 44,57 Z"/>
 <path style="fill:#2c80c2" d="M 20,56 16,52 H 8 C 5.784,52 4,50.216 4,48 V 12 C 4,9.784 5.784,8 8,8 H 56 C 58.216,8 60,9.784 60,12 V 48 C 60,50.216 58.216,52 56,52 H 48 L 44,56 Z"/>
 <path style="opacity:0.5" d="M 24,48 20,44 H 12 V 16 H 52 V 44 H 44 L 40,48 Z"/>
 <g style="fill:#f8c44e" transform="scale(1,-1)">
  <rect width="4" height="4" x="18" y="-20"/>
  <rect width="4" height="4" x="24" y="-20"/>
  <rect width="4" height="4" x="30" y="-20"/>
  <rect width="4" height="4" x="36" y="-20"/>
  <rect width="4" height="4" x="42" y="-20"/>
 </g>
 <path style="fill:#ffffff;opacity:0.2" d="M 8 8 C 5.784 8 4 9.784 4 12 L 4 13 C 4 10.784 5.784 9 8 9 L 56 9 C 58.216 9 60 10.784 60 13 L 60 12 C 60 9.784 58.216 8 56 8 L 8 8 z"/>
 <path style="opacity:0.2;fill:#ffffff" d="M 12,44 V 45 H 20 L 24,49 H 40 L 44,45 H 52 V 44 H 44 L 40,48 H 24 L 20,44 Z"/>
</svg>

<?xml version="1.0" encoding="UTF-8" standalone="no"?>
<svg xmlns="http://www.w3.org/2000/svg" height="64" width="64" version="1">
 <path d="M 8,8 C 8,8 4,8 4,12 l 0,36 c 0,4 4,4 4,4 l 8,0 4,4 24,0 4,-4 8,0 c 0,0 4,0.51976 4,-4 L 60,12 C 60,8 56,8 56,8 Z" style="fill:#2c80c2"/>
 <path d="m 12,16 40,0 0,28 -8,0 -4,4 -16,0 -4,-4 -8,0 z" style="fill:#464646"/>
 <path style="opacity:0.1;fill:#ffffff" d="M 8 8 C 8 8 4 8 4 12 L 4 13 C 4 9 8 9 8 9 L 56 9 C 56 9 60 9 60 13 L 60 12 C 60 8 56 8 56 8 L 8 8 z"/>
 <path style="opacity:0.2" d="m 4,48 0,1 c 0,4 4,4 4,4 l 8,0 4,4 24,0 4,-4 8,0 c 0,0 4,0.51976 4,-4 l 0,-1 c 0,4.51976 -4,4 -4,4 l -8,0 -4,4 -24,0 -4,-4 -8,0 c 0,0 -4,0 -4,-4 z"/>
</svg>
